!!!OTL: Study 61
**kern	**dynam
*clefG2	*
*k[f#c#g#d#]	*
*E:	*
*M3/4	*
=1	=1
(2ee	p
4b)	<
=2	=2
(2ff#	.
4b)	[[
=3	=3
2gg#	mf
(8bbL	.
8aaJ)	.
=4	=4
(4gg#	>
4ff#)	]
4r	.
=5	=5
(2gg#	p
4aa)	.
=6	=6
2bb	<
(4ee	[[
=7	=7
2eee)	f
4ccc#	>
!!linebreak:original
=8	=8
2bb	.
(4ccc#	mf ]
=9	=9
2aa)	.
(4bb	.
=10	=10
2gg#)	.
(8bbL	.
8aaJ)	.
=11	=11
2gg#	.
4ee	.
=12	=12
2ff#	.
4r	.
=13	=13
4g#	p <
4b	.
4ee	[[
=14	=14
4.gg#	>
8ff#	.
4ee	]
!!linebreak:original
=15	=15
4b	<
4dd#	.
4ff#	[[
=16	=16
4.aa	>
8gg#	.
4ff#	]
=17	=17
(4gg#	mf
4ee)	.
4bb'	.
=18	=18
(4aa	.
4ff#)	.
4ccc#'	.
=19	=19
(4bb	.
4gg#)	.
4ee'	.
=20	=20
(4gg#	.
4ff#)	.
4r	.
=21	=21
2.ee	p
!!linebreak:original
=22	=22
(8qff#/	.
(4ee)	.
4dd#)	.
4ee	.
=23	=23
2.ff#	.
=24	=24
(8qgg#/	.
(4ff#)	.
4ee)	.
4ff#'	.
=25	=25
2gg#	.
(4ee	mf
=26	=26
4eee)	.
4ddd#	.
4ccc#	.
=27	=27
(4bb	.
4gg#)	.
4ee'	.
=28	=28
(2gg#	>
4ff#)	]]
!!linebreak:original
=29	=29
(2ee	p
4b)	<
=30	=30
(2ff#	.
4b)	[
=31	=31
2gg#	.
(8bbL	.
8aaJ)	.
=32	=32
(2gg#	>
4ff#)	]]
=33	=33
2ee	.
(8bL	mf
8aJ)	.
=34	=34
2g#	.
4f#	.
=35	=35
2e	.
(8g#L	.
8bJ)	.
!!linebreak:original
=36	=36
4ee	p
4gg#	.
4bb	.
=37	=37
!LO:TX:b:i:t=dim.	!
(2.eee	.
=38	=38
4eee)	.
4r	.
4r	.
=39	=39
2.r	.
==	==
*-	*-
